X: 362
T: Da shimenwu
%%abc-version 2.0
%%abcx-abcm2ps-target-version 5.9.1 (29 Sep 2008)
%%abc-creator hum2abc beta
%%abcx-conversion-date 2013/10/02 07:52:30
%%abc-edited-by Helmut Schaffrath
%%humdrum-veritas 3719471936
%%humdrum-veritas-data 929238668
%%continueall 1
%%barnumbers 0
L: 1/16
M: 2/4
K: G
d2 d e g2 g e [I:setbarnb 1]| 
d2 e dc4 | 
d2> e2 d2 c2 | 
B2 A BG4 | 
G2 G A d2 d2 | 
d2 e dc4 | 
G2 F E D2 B2 | 
A2> G2 A G F E | 
D8 |]  



